packages/dnb-eufemia/assets/icons/thumbs_down.svg

<svg width="16" height="16" viewBox="0 0 16 16" fill="none" xmlns="http://www.w3.org/2000/svg">
<path d="M1.00738 8.43065L0.261803 8.34933L0.260891 8.3577L0.260166 8.36609L1.00738 8.43065ZM1.52657 9.83025L2.05491 9.29793L2.05489 9.29791L1.52657 9.83025ZM2.45397 10.3259L2.59677 9.5896H2.59677L2.45397 10.3259ZM14.564 9.17689L14.5295 8.42769L14.564 9.17689ZM14.987 8.70058L14.247 8.57808L14.247 8.57809L14.987 8.70058ZM15 5.68176L15.75 5.68172V5.68172L15 5.68176ZM14.9798 2.64889L14.2464 2.80596L14.2464 2.80602L14.9798 2.64889ZM14.4936 2.19594L14.6124 1.45541L14.6124 1.45541L14.4936 2.19594ZM11.6527 2.19577L11.7687 2.93676L11.7687 2.93675L11.6527 2.19577ZM11.5664 9.16812L11.5639 9.91812L11.5664 9.16812ZM5.31235 10.3641L5.99795 10.6682C6.10154 10.4346 6.0791 10.1644 5.9384 9.95112C5.79771 9.73784 5.55811 9.61086 5.30263 9.61417L5.31235 10.3641ZM6.13217 14.9858L6.25785 14.2464L6.24992 14.2451L6.24197 14.2439L6.13217 14.9858ZM7.30403 14.4295L6.62752 14.1057L7.30403 14.4295ZM10.6263 9.24326L11.1007 9.82415L11.1053 9.82032L10.6263 9.24326ZM8.06228 12.1062L7.39595 11.7619L8.06228 12.1062ZM10.7838 2.20706L11.2074 1.58813L11.2074 1.58813L10.7838 2.20706ZM3.76645 1.1078L3.58406 0.380314L3.58406 0.380315L3.76645 1.1078ZM2.25641 3.38386L2.86897 3.81661L3.067 3.53628L2.98431 3.20317L2.25641 3.38386ZM1.76307 5.29984L2.40195 5.69269L2.55655 5.44128L2.49834 5.15193L1.76307 5.29984ZM1.50245 7.23812L2.14012 7.63294L2.31585 7.34912L2.22259 7.02858L1.50245 7.23812ZM0.260166 8.36609C0.193991 9.13189 0.452325 9.82077 0.998246 10.3626L2.05489 9.29791C1.81882 9.06362 1.72742 8.80969 1.7546 8.49522L0.260166 8.36609ZM0.998226 10.3626C1.37102 10.7326 1.79715 10.9625 2.31117 11.0622L2.59677 9.5896C2.38307 9.54815 2.22303 9.4648 2.05491 9.29793L0.998226 10.3626ZM14.5986 9.92609C14.9909 9.908 15.2674 9.68256 15.4226 9.4936C15.5814 9.30014 15.6875 9.06123 15.7269 8.82307L14.247 8.57809C14.25 8.5603 14.2527 8.55456 14.2633 8.54167C14.2702 8.53328 14.3534 8.43581 14.5295 8.42769L14.5986 9.92609ZM15.7269 8.82308C15.7336 8.78236 15.7357 8.74768 15.736 8.74349C15.7369 8.73084 15.7374 8.71903 15.7378 8.71004C15.7386 8.69161 15.7392 8.67049 15.7397 8.64883C15.7407 8.60476 15.7416 8.54534 15.7424 8.47293C15.7441 8.32742 15.7455 8.1205 15.7466 7.85963C15.7488 7.33744 15.75 6.59384 15.75 5.68172L14.25 5.6818C14.25 6.59296 14.2488 7.3341 14.2466 7.85316C14.2455 8.11292 14.2441 8.31575 14.2425 8.45601C14.2417 8.52648 14.2409 8.57895 14.2401 8.61413C14.2397 8.63209 14.2393 8.64244 14.2391 8.64711C14.238 8.6737 14.2385 8.62993 14.247 8.57808L15.7269 8.82308ZM15.75 5.68172C15.7499 4.41685 15.7492 3.67596 15.7463 3.24123C15.7449 3.02486 15.7429 2.87813 15.7399 2.77844C15.7377 2.70515 15.7345 2.59137 15.7131 2.49177L14.2464 2.80602C14.2337 2.74672 14.2373 2.71576 14.2405 2.82314C14.243 2.90412 14.2449 3.0359 14.2463 3.25122C14.2492 3.67989 14.2499 4.41513 14.25 5.6818L15.75 5.68172ZM15.7132 2.49183C15.5968 1.94862 15.1448 1.54085 14.6124 1.45541L14.3747 2.93646C14.3395 2.9308 14.3139 2.91588 14.2963 2.89948C14.2788 2.88318 14.2566 2.85343 14.2464 2.80596L15.7132 2.49183ZM14.6124 1.45541C14.552 1.44572 14.4862 1.4437 14.474 1.4432C14.4414 1.44187 14.4019 1.44078 14.3586 1.43984C14.2713 1.43794 14.1559 1.43641 14.0235 1.4352C13.7581 1.43277 13.4157 1.43155 13.0743 1.43153C12.7329 1.43151 12.3903 1.43269 12.1246 1.43509C11.992 1.43628 11.8764 1.4378 11.7888 1.43969C11.7376 1.44079 11.6155 1.44247 11.5368 1.45479L11.7687 2.93675C11.7205 2.94431 11.7063 2.94181 11.8211 2.93934C11.8995 2.93765 12.0079 2.9362 12.1381 2.93503C12.3978 2.93268 12.7356 2.93151 13.0742 2.93153C13.4129 2.93155 13.7504 2.93276 14.0098 2.93513C14.1398 2.93632 14.248 2.93779 14.3261 2.93948C14.3655 2.94034 14.3941 2.94119 14.4128 2.94195C14.4519 2.94355 14.4203 2.94377 14.3748 2.93646L14.6124 1.45541ZM11.5368 1.45479C10.9317 1.54948 10.4859 2.03686 10.4146 2.6273L11.9038 2.80698C11.8976 2.85838 11.8512 2.92385 11.7687 2.93676L11.5368 1.45479ZM10.4691 9.03001C10.5325 9.21336 10.6416 9.40066 10.7844 9.55373C10.9101 9.68851 11.1764 9.91681 11.5639 9.91812L11.569 8.41812C11.6853 8.41851 11.7694 8.45495 11.8127 8.47938C11.8555 8.50348 11.8767 8.52568 11.8812 8.53049C11.8863 8.53602 11.8841 8.53213 11.887 8.5404L10.4691 9.03001ZM4.62676 10.06C4.24773 10.9146 3.96088 12.1237 4.0314 13.1981C4.06681 13.7374 4.19633 14.3057 4.51 14.7793C4.84077 15.2787 5.34891 15.6281 6.02237 15.7277L6.24197 14.2439C5.99925 14.208 5.86172 14.1037 5.7606 13.951C5.64238 13.7725 5.5538 13.4901 5.52818 13.0998C5.47666 12.315 5.69608 11.3488 5.99795 10.6682L4.62676 10.06ZM6.00648 15.7252C6.25103 15.7668 6.60364 15.7656 6.96039 15.6463C7.33529 15.5209 7.74153 15.2527 7.98055 14.7533L6.62752 14.1057C6.60973 14.1429 6.59076 14.1635 6.57325 14.1777C6.55356 14.1938 6.52507 14.2102 6.48456 14.2238C6.44328 14.2376 6.39634 14.246 6.34949 14.2489C6.30132 14.2519 6.26764 14.2481 6.25785 14.2464L6.00648 15.7252ZM10.6263 9.24326C10.1519 8.66238 10.1518 8.66244 10.1517 8.66251C10.1517 8.66254 10.1516 8.66262 10.1515 8.66268C10.1513 8.6628 10.1512 8.66295 10.151 8.66312C10.1505 8.66346 10.15 8.66389 10.1494 8.66442C10.1481 8.66547 10.1463 8.6669 10.1442 8.66869C10.1398 8.67227 10.1337 8.67731 10.126 8.68375C10.1104 8.69665 10.0882 8.71518 10.0601 8.73893C10.004 8.78641 9.92406 8.85485 9.82647 8.94083C9.63168 9.11246 9.36454 9.35568 9.07434 9.64295C8.51042 10.2011 7.79687 10.9859 7.39595 11.7619L8.72861 12.4504C9.01483 11.8964 9.58328 11.2498 10.1296 10.709C10.3945 10.4468 10.6395 10.2236 10.8181 10.0663C10.9072 9.98778 10.9793 9.92606 11.0285 9.88451C11.053 9.86375 11.0718 9.84805 11.0841 9.83784C11.0903 9.83274 11.0948 9.82901 11.0976 9.8267C11.099 9.82555 11.1 9.82476 11.1005 9.82433C11.1007 9.82411 11.1009 9.82399 11.1009 9.82395C11.101 9.82394 11.1009 9.82395 11.1009 9.82397C11.1009 9.82399 11.1008 9.82403 11.1008 9.82404C11.1008 9.82408 11.1007 9.82413 10.6263 9.24326ZM7.39595 11.7619C7.13423 12.2685 6.99479 12.7814 6.89142 13.1946C6.77734 13.6505 6.71913 13.9143 6.62752 14.1057L7.98055 14.7533C8.15644 14.3858 8.25804 13.9124 8.34656 13.5587C8.44578 13.1621 8.55171 12.7928 8.72861 12.4504L7.39595 11.7619ZM2.31117 11.0622C2.47818 11.0946 2.77571 11.1051 3.03596 11.1114C3.3295 11.1185 3.68207 11.1211 4.01878 11.1215C4.35637 11.1218 4.68199 11.12 4.92294 11.118C5.0435 11.1171 5.14306 11.1161 5.21258 11.1153C5.24734 11.1149 5.2746 11.1146 5.29322 11.1144C5.30253 11.1143 5.30969 11.1142 5.31455 11.1141C5.31697 11.1141 5.31883 11.1141 5.32009 11.1141C5.32072 11.1141 5.3212 11.1141 5.32153 11.1141C5.3217 11.1141 5.32183 11.1141 5.32192 11.114C5.32196 11.114 5.322 11.114 5.32203 11.114C5.32206 11.114 5.32208 11.114 5.31235 10.3641C5.30263 9.61417 5.30263 9.61417 5.30263 9.61417C5.30261 9.61417 5.30259 9.61417 5.30256 9.61417C5.3025 9.61418 5.3024 9.61418 5.30227 9.61418C5.30199 9.61418 5.30157 9.61419 5.301 9.61419C5.29986 9.61421 5.29813 9.61423 5.29583 9.61426C5.29122 9.61432 5.28433 9.6144 5.27528 9.61451C5.25718 9.61473 5.23049 9.61504 5.19633 9.61541C5.12801 9.61615 5.02984 9.61713 4.91086 9.61809C4.67272 9.62 4.35196 9.62182 4.02043 9.62146C3.68803 9.62109 3.34875 9.61853 3.07222 9.61184C2.93361 9.60849 2.8154 9.60421 2.72391 9.599C2.61869 9.593 2.58658 9.58762 2.59677 9.5896L2.31117 11.0622ZM11.2074 1.58813C9.99744 0.760051 8.68498 0.662034 7.33925 0.455083L7.11125 1.93765C8.62293 2.17012 9.50256 2.23901 10.3602 2.82599L11.2074 1.58813ZM7.33925 0.455083C6.59959 0.341337 5.87766 0.271955 5.24228 0.254417C4.62066 0.237259 4.03228 0.267941 3.58406 0.380314L3.94884 1.83528C4.19795 1.77283 4.62462 1.73794 5.20089 1.75385C5.7634 1.76937 6.4222 1.83169 7.11125 1.93765L7.33925 0.455083ZM3.58406 0.380315C3.58417 0.380287 3.58393 0.380347 3.5832 0.380526C3.58248 0.380702 3.58152 0.380939 3.58018 0.381264C3.57712 0.382009 3.57432 0.382684 3.56947 0.383861C3.56062 0.38601 3.54888 0.388869 3.53521 0.392289C3.50766 0.399184 3.47268 0.408254 3.43186 0.419763C3.35046 0.442717 3.24618 0.475271 3.1284 0.520335C2.89665 0.609005 2.59436 0.752997 2.30786 0.983065C2.01774 1.21604 1.73366 1.5461 1.57008 1.99918C1.40525 2.45572 1.38344 2.9802 1.5285 3.56455L2.98431 3.20317C2.89984 2.86288 2.93143 2.6457 2.98094 2.50856C3.0317 2.36797 3.12291 2.25234 3.24707 2.15263C3.51745 1.93551 3.8557 1.85863 3.94884 1.83528L3.58406 0.380315ZM1.64385 2.95111C1.39196 3.30766 1.16394 3.66855 1.0442 4.08769C0.918637 4.52719 0.929979 4.96149 1.0278 5.44776L2.49834 5.15193C2.43161 4.82024 2.44604 4.64134 2.48649 4.49973C2.53277 4.33777 2.63369 4.14965 2.86897 3.81661L1.64385 2.95111ZM1.12419 4.90699C0.872534 5.31625 0.691822 5.71154 0.635615 6.15708C0.579603 6.60108 0.657261 7.01788 0.782317 7.44766L2.22259 7.02858C2.1214 6.68084 2.1051 6.49323 2.12382 6.34482C2.14235 6.19796 2.20506 6.01288 2.40195 5.69269L1.12419 4.90699ZM0.864784 6.84331C0.599465 7.27182 0.338087 7.64994 0.261803 8.34933L1.75296 8.51197C1.78762 8.19415 1.86035 8.0848 2.14012 7.63294L0.864784 6.84331ZM11.5639 9.91812C11.7019 9.91858 14.3577 9.9372 14.5986 9.92609L14.5295 8.42769C14.5296 8.42768 14.5178 8.42809 14.4866 8.42851C14.4584 8.42888 14.4215 8.42918 14.3763 8.42941C14.2859 8.42985 14.1671 8.42996 14.0286 8.42981C13.7518 8.4295 13.4004 8.42815 13.0499 8.42646C12.3523 8.42311 11.6515 8.4184 11.569 8.41812L11.5639 9.91812ZM11.1053 9.82032L11.6571 9.36227L10.699 8.20814L10.1472 8.66619L11.1053 9.82032ZM10.3602 2.82599C10.3316 2.80637 10.3295 2.79786 10.35 2.8227C10.3673 2.84372 10.3885 2.8737 10.411 2.91007C10.4329 2.94531 10.4513 2.97886 10.4641 3.00344C10.4703 3.01542 10.4748 3.02449 10.4773 3.0296C10.4786 3.03213 10.4793 3.03363 10.4794 3.03395C10.4795 3.03411 10.4794 3.03397 10.4792 3.03352C10.4791 3.03329 10.479 3.03298 10.4788 3.03259C10.4787 3.0324 10.4786 3.03219 10.4785 3.03195C10.4784 3.03183 10.4784 3.03171 10.4783 3.03158C10.4783 3.03152 10.4783 3.03142 10.4782 3.03139C10.4782 3.03128 10.4781 3.03118 11.1592 2.71714C11.8403 2.4031 11.8403 2.40299 11.8402 2.40289C11.8402 2.40285 11.8401 2.40274 11.8401 2.40266C11.84 2.40251 11.84 2.40236 11.8399 2.40219C11.8397 2.40187 11.8396 2.40152 11.8394 2.40115C11.8391 2.4004 11.8387 2.39956 11.8382 2.39863C11.8374 2.39677 11.8363 2.39454 11.8351 2.39195C11.8327 2.38679 11.8295 2.3802 11.8257 2.37235C11.818 2.35668 11.8076 2.33576 11.7947 2.31087C11.7691 2.26171 11.732 2.19403 11.6857 2.11927C11.6093 1.99622 11.4472 1.75226 11.2074 1.58813L10.3602 2.82599ZM10.4092 2.71947L10.4281 8.78753L11.9281 8.78288L11.9092 2.71481L10.4092 2.71947Z" fill="black"/>
</svg>

<svg width="16" height="16" viewBox="0 0 16 16" fill="none" xmlns="http://www.w3.org/2000/svg"><path d="m1.007 8.43-.745-.08-.001.008v.008l.746.065Zm.52 1.4.528-.532-.528.532Zm.927.496.143-.736-.143.736Zm12.11-1.15-.034-.748.034.749Zm.423-.475-.74-.123.74.123ZM15 5.68h.75H15Zm-.02-3.032-.734.157.734-.157Zm-.486-.453.118-.74-.118.74Zm-2.841 0 .116.74-.116-.74Zm-.087 6.972-.002.75.002-.75Zm-6.254 1.196.686.304a.75.75 0 0 0-.695-1.054l.01.75Zm.82 4.622.126-.74H6.25l-.008-.002-.11.742Zm1.172-.556-.676-.324.676.324Zm3.322-5.187.475.581.004-.004-.479-.577Zm-2.564 2.863-.666-.344.666.344Zm2.722-9.899.423-.619-.423.62Zm-7.018-1.1L3.584.38l.182.728Zm-1.51 2.277.613.433.198-.28-.083-.334-.728.18ZM1.763 5.3l.639.393.155-.252-.059-.29-.735.149Zm-.26 1.938.637.395.176-.284-.093-.32-.72.21ZM.26 8.366a2.44 2.44 0 0 0 .738 1.997l1.057-1.065a.943.943 0 0 1-.3-.803L.26 8.366Zm.738 1.997c.373.37.8.6 1.313.7l.286-1.473a.98.98 0 0 1-.542-.292L.998 10.363Zm13.6-.437c.393-.018.67-.243.825-.432.158-.194.264-.433.304-.67l-1.48-.246a.061.061 0 0 1 .016-.036.368.368 0 0 1 .267-.114l.069 1.498Zm1.129-1.103a.633.633 0 0 0 .009-.08l.002-.033.002-.061.002-.176.005-.613c.002-.523.003-1.266.003-2.178h-1.5a548.26 548.26 0 0 1-.008 2.774 15.128 15.128 0 0 1-.003.191c-.001.027 0-.017.008-.069l1.48.245Zm.023-3.141c0-1.265 0-2.006-.004-2.44a21.429 21.429 0 0 0-.006-.464c-.002-.073-.005-.187-.027-.286l-1.467.314c-.012-.06-.009-.09-.005.017.002.081.004.213.005.428.003.429.004 1.164.004 2.43h1.5Zm-.037-3.19a1.348 1.348 0 0 0-1.1-1.037l-.238 1.481a.147.147 0 0 1-.079-.037.176.176 0 0 1-.05-.093l1.467-.314Zm-1.1-1.037c-.061-.01-.127-.011-.139-.012a110.676 110.676 0 0 0-2.685-.004c-.051.002-.173.003-.252.016l.232 1.482c-.049.007-.063.005.052.002l.317-.004a109.169 109.169 0 0 1 2.275.007c.039.002.007.002-.038-.006l.237-1.48Zm-3.076 0a1.342 1.342 0 0 0-1.122 1.172l1.489.18a.159.159 0 0 1-.135.13l-.232-1.482ZM10.469 9.03c.064.183.173.37.315.524.126.135.392.363.78.364l.005-1.5c.116 0 .2.037.244.061a.284.284 0 0 1 .068.051c.005.006.003.002.006.01l-1.418.49Zm-5.842 1.03c-.38.855-.666 2.064-.596 3.138.036.54.165 1.108.479 1.581.33.5.839.85 1.512.949l.22-1.484a.64.64 0 0 1-.481-.293c-.119-.178-.207-.46-.233-.851-.051-.785.168-1.751.47-2.432l-1.371-.608Zm1.38 5.665c.244.042.597.04.953-.079a1.712 1.712 0 0 0 1.02-.893l-1.352-.647a.197.197 0 0 1-.055.072.28.28 0 0 1-.088.046.538.538 0 0 1-.227.022l-.252 1.48Zm4.62-6.482a228.626 228.626 0 0 0-.476-.58l-.002.001-.005.005a1.83 1.83 0 0 0-.084.07 17.957 17.957 0 0 0-.986.904c-.564.558-1.277 1.343-1.678 2.119l1.333.688c.286-.554.854-1.2 1.4-1.741a16.431 16.431 0 0 1 .955-.871l.014-.011.002-.003c.001 0 0 0 0 0l-.474-.58Zm-3.231 2.519c-.262.506-.401 1.02-.505 1.433-.114.455-.172.72-.263.91l1.353.648c.175-.367.277-.84.366-1.194.099-.397.205-.766.382-1.109l-1.333-.688Zm-5.085-.7c.167.033.465.043.725.05.293.006.646.01.983.01a101.252 101.252 0 0 0 1.296-.008h.007l-.01-.75-.01-.75h-.026a61.362 61.362 0 0 1-.365.004 79.197 79.197 0 0 1-1.839-.007 11.15 11.15 0 0 1-.348-.012c-.105-.006-.137-.011-.127-.01l-.286 1.473Zm8.896-9.474C9.997.76 8.685.662 7.34.455l-.228 1.483c1.512.232 2.392.301 3.25.888l.846-1.238ZM7.34.455a17.22 17.22 0 0 0-2.097-.2C4.621.236 4.032.267 3.584.38l.365 1.455c.249-.062.676-.097 1.252-.081a15.73 15.73 0 0 1 1.91.184L7.34.455ZM3.584.38 3.58.382l-.01.003a4.955 4.955 0 0 0-.138.036 3.538 3.538 0 0 0-.304.1 3.064 3.064 0 0 0-.82.463c-.29.233-.574.563-.738 1.016-.165.457-.187.981-.042 1.566l1.456-.362c-.084-.34-.053-.557-.003-.694a.806.806 0 0 1 .266-.356c.27-.217.609-.294.702-.318L3.584.38Zm-1.94 2.571c-.252.357-.48.718-.6 1.137-.125.44-.114.873-.016 1.36l1.47-.296c-.066-.332-.052-.51-.012-.652.047-.162.148-.35.383-.683L1.644 2.95Zm-.52 1.956c-.251.41-.432.805-.488 1.25-.056.444.021.86.146 1.29l1.44-.418c-.1-.348-.117-.536-.098-.684.018-.147.081-.332.278-.652l-1.278-.786Zm-.26 1.936C.6 7.272.339 7.65.263 8.35l1.491.163c.035-.318.107-.427.387-.88L.865 6.844Zm10.7 3.075c.138 0 2.794.02 3.035.008l-.07-1.498h-.042l-.11.001h-.348c-.277 0-.629 0-.98-.003l-1.48-.008-.005 1.5Zm-.459-.098.552-.458-.958-1.154-.552.458.958 1.154Zm-.745-6.994c-.028-.02-.03-.028-.01-.003a1.444 1.444 0 0 1 .13.211l-.001-.001v-.001l.68-.315.681-.314V2.4l-.002-.002-.003-.007-.01-.02a3.17 3.17 0 0 0-.14-.253 1.792 1.792 0 0 0-.478-.53l-.847 1.237Zm.05-.107.018 6.069 1.5-.005-.019-6.068-1.5.004Z" fill="#000"/></svg>
